grade/tech-noir.cube
TITLE "Garden of Dreams tech-noir"
LUT_3D_SIZE 5
DOMAIN_MIN 0.000000 0.000000 0.000000
DOMAIN_MAX 0.903226 0.903226 0.903226
0.000000 0.000000 0.000000
0.029377 0.026664 0.002907
0.141968 0.066252 0.001420
0.225966 0.105451 0.002260
0.306544 0.143054 0.003065
0.027266 0.146556 0.027266
0.059094 0.189434 0.033237
0.264309 0.210395 0.020201
0.488820 0.228116 0.004888
0.563502 0.262968 0.005635
0.055056 0.295924 0.055056
0.062977 0.338503 0.062977
0.163161 0.369464 0.060794
0.522422 0.368969 0.030471
0.807568 0.376865 0.008076
0.081295 0.436961 0.081295
0.088901 0.477842 0.088901
0.096435 0.518337 0.096435
0.307277 0.534200 0.081897
0.813360 0.514485 0.035346
0.106608 0.573018 0.106608
0.113998 0.612737 0.113998
0.121334 0.652171 0.121334
0.128622 0.691342 0.128622
0.490435 0.687931 0.097496
0.000000 0.000000 0.000000
0.047576 0.043183 0.004708
0.170991 0.079796 0.001710
0.253642 0.118366 0.002536
0.333346 0.155561 0.003333
0.030181 0.162220 0.030181
0.063774 0.204434 0.035869
0.280931 0.223627 0.021472
0.514316 0.240014 0.005143
0.588609 0.274684 0.005886
0.057759 0.310456 0.057759
0.065642 0.352825 0.065642
0.169225 0.383195 0.063053
0.539732 0.381195 0.031481
0.831710 0.388131 0.008317
0.083887 0.450890 0.083887
0.091467 0.491636 0.091467
0.098978 0.532008 0.098978
0.314737 0.547170 0.083886
0.831655 0.526057 0.036141
0.109124 0.586540 0.109124
0.116495 0.626160 0.116495
0.123814 0.665502 0.123814
0.131086 0.704588 0.131086
0.499278 0.700334 0.099254
0.002028 0.010901 0.002028
0.065012 0.059009 0.006433
0.199473 0.093087 0.001995
0.280985 0.131126 0.002810
0.359911 0.167958 0.003599
0.033064 0.177718 0.033064
0.068415 0.219313 0.038480
0.297445 0.236772 0.022734
0.539672 0.251847 0.005397
0.613597 0.286345 0.006136
0.060449 0.324913 0.060449
0.068294 0.367082 0.068294
0.175265 0.396871 0.065304
0.556981 0.393378 0.032487
0.855774 0.399361 0.008558
0.086469 0.464772 0.086469
0.094025 0.505386 0.094025
0.101515 0.545641 0.101515
0.322179 0.560107 0.085869
0.849905 0.537601 0.036934
0.111633 0.600028 0.111633
0.118986 0.639551 0.118986
0.126289 0.678804 0.126289
0.133545 0.717806 0.133545
0.508103 0.712713 0.101008
0.005685 0.030557 0.005685
0.081937 0.074371 0.008108
0.227509 0.106171 0.002275
0.308035 0.143750 0.003080
0.386259 0.180254 0.003863
0.035919 0.193066 0.035919
0.073022 0.234081 0.041071
0.313858 0.249837 0.023988
0.564897 0.263618 0.005649
0.638473 0.297954 0.006385
0.063125 0.339298 0.063125
0.070936 0.381278 0.070936
0.181281 0.410496 0.067546
0.574171 0.405518 0.033490
0.879763 0.410556 0.008798
0.089043 0.478607 0.089043
0.096576 0.519095 0.096576
0.104044 0.559235 0.104044
0.329601 0.573010 0.087847
0.868112 0.549118 0.037725
0.114136 0.613481 0.114136
0.121472 0.652910 0.121472
0.128758 0.692076 0.128758
0.136000 0.730998 0.136000
0.516911 0.725067 0.102759
0.009077 0.048789 0.009077
0.098479 0.089386 0.009744
0.255165 0.119077 0.002552
0.334824 0.156251 0.003348
0.412409 0.192458 0.004124
0.038750 0.208280 0.038750
0.077597 0.248746 0.043644
0.330176 0.262826 0.025235
0.589996 0.275332 0.005900
0.663241 0.309512 0.006632
0.065789 0.353616 0.065789
0.073566 0.395416 0.073566
0.187276 0.424070 0.069779
0.591304 0.417619 0.034489
0.903679 0.421717 0.009037
0.091609 0.492398 0.091609
0.099119 0.532765 0.099119
0.106566 0.572793 0.106566
0.337004 0.585881 0.089820
0.886277 0.560608 0.038515
0.116633 0.626902 0.116633
0.123952 0.666240 0.123952
0.131222 0.705321 0.131222
0.138449 0.744163 0.138449
0.525702 0.737399 0.104507
