grade/tech-noir.cube
TITLE "Garden of Dreams tech-noir"
LUT_3D_SIZE 8
DOMAIN_MIN 0.000000 0.000000 0.000000
DOMAIN_MAX 0.903226 0.903226 0.903226
0.000000 0.000000 0.000000
0.002533 0.003691 0.000531
0.041467 0.033206 0.003209
0.105565 0.055984 0.002411
0.166424 0.077665 0.001664
0.214213 0.099966 0.002142
0.260835 0.121723 0.002608
0.306544 0.143054 0.003065
0.014426 0.077538 0.014426
0.026941 0.104608 0.018833
0.095194 0.124195 0.017041
0.187825 0.140249 0.012487
0.304190 0.152974 0.005264
0.367711 0.171598 0.003677
0.411832 0.192188 0.004118
0.455432 0.212535 0.004554
0.031381 0.168673 0.031381
0.036197 0.194559 0.036197
0.071472 0.216422 0.037639
0.193058 0.227647 0.029675
0.337578 0.235842 0.019170
0.504692 0.241081 0.006168
0.556765 0.259824 0.005568
0.598996 0.279531 0.005990
0.047320 0.254346 0.047320
0.051935 0.279149 0.051935
0.056504 0.303709 0.056504
0.129295 0.319899 0.053646
0.301669 0.323995 0.039971
0.496130 0.325267 0.023868
0.697572 0.325534 0.006976
0.738795 0.344771 0.007388
0.062672 0.336861 0.062672
0.067151 0.360935 0.067151
0.071596 0.384831 0.071596
0.076012 0.408563 0.076012
0.200297 0.417827 0.067425
0.421828 0.415334 0.048285
0.664850 0.410139 0.026793
0.875695 0.408658 0.008757
0.077612 0.417165 0.077612
0.081989 0.440692 0.081989
0.086341 0.464081 0.086341
0.090668 0.487339 0.090668
0.094972 0.510474 0.094972
0.284277 0.511402 0.079234
0.553774 0.502641 0.054795
0.844306 0.491263 0.028059
0.092237 0.495776 0.092237
0.096534 0.518868 0.096534
0.100809 0.541847 0.100809
0.105064 0.564718 0.105064
0.109300 0.587486 0.109300
0.113518 0.610157 0.113518
0.381046 0.601292 0.089224
0.697574 0.586486 0.059609
0.106608 0.573018 0.106608
0.110837 0.595751 0.110837
0.115049 0.618387 0.115049
0.119243 0.640932 0.119243
0.123421 0.663389 0.123421
0.127584 0.685761 0.127584
0.148102 0.706099 0.129959
0.490435 0.687931 0.097496
0.000000 0.000000 0.000000
0.010453 0.015230 0.002193
0.052945 0.042397 0.004097
0.120894 0.064114 0.002761
0.182806 0.085309 0.001828
0.230162 0.107409 0.002302
0.276451 0.129010 0.002765
0.321890 0.150215 0.003219
0.016211 0.087137 0.016211
0.029314 0.113824 0.020492
0.101705 0.132688 0.018207
0.198321 0.148087 0.013185
0.318562 0.160202 0.005513
0.382757 0.178620 0.003828
0.426694 0.199124 0.004267
0.470132 0.219395 0.004701
0.033025 0.177510 0.033025
0.037816 0.203261 0.037816
0.074260 0.224866 0.039108
0.199738 0.235523 0.030701
0.348071 0.243172 0.019766
0.518931 0.247882 0.006342
0.571146 0.266535 0.005711
0.613262 0.286189 0.006133
0.048893 0.262798 0.048893
0.053491 0.287515 0.053491
0.058046 0.311999 0.058046
0.132535 0.327915 0.054990
0.308656 0.331498 0.040897
0.506810 0.332270 0.024382
0.711601 0.332081 0.007116
0.752736 0.351277 0.007527
0.064197 0.345057 0.064197
0.068664 0.369069 0.068664
0.073099 0.392908 0.073099
0.077505 0.416588 0.077505
0.203993 0.425538 0.068669
0.429169 0.422563 0.049126
0.675798 0.416893 0.027234
0.889378 0.415043 0.008894
0.079102 0.425171 0.079102
0.083470 0.448650 0.083470
0.087813 0.471994 0.087813
0.092132 0.495209 0.092132
0.096429 0.518305 0.096429
0.288429 0.518871 0.080391
0.561493 0.509648 0.055559
0.855562 0.497812 0.028433
0.093699 0.503631 0.093699
0.097988 0.526684 0.097988
0.102256 0.549626 0.102256
0.106504 0.572461 0.106504
0.110734 0.595196 0.110734
0.114946 0.617835 0.114946
0.385651 0.608559 0.090302
0.705684 0.593304 0.060302
0.108046 0.580750 0.108046
0.112270 0.603449 0.112270
0.116475 0.626054 0.116475
0.120664 0.648568 0.120664
0.124836 0.670996 0.124836
0.128994 0.693341 0.128994
0.149681 0.713630 0.131346
0.495490 0.695021 0.098501
0.000000 0.000000 0.000000
0.017680 0.025759 0.003708
0.064151 0.051371 0.004965
0.136010 0.072130 0.003106
0.199026 0.092879 0.001990
0.245988 0.114795 0.002460
0.291969 0.136252 0.002920
0.337155 0.157339 0.003372
0.017976 0.096619 0.017976
0.031667 0.122958 0.022136
0.108169 0.141121 0.019364
0.208756 0.155879 0.013879
0.332861 0.167393 0.005761
0.397738 0.185611 0.003977
0.441498 0.206033 0.004415
0.484781 0.226231 0.004848
0.034660 0.186299 0.034660
0.039427 0.211922 0.039427
0.077037 0.233275 0.040570
0.206393 0.243371 0.031724
0.358528 0.250478 0.020359
0.533126 0.254663 0.006515
0.585486 0.273227 0.005855
0.627490 0.292829 0.006275
0.050460 0.271220 0.050460
0.055043 0.295855 0.055043
0.059584 0.320264 0.059584
0.135766 0.335909 0.056331
0.315625 0.338983 0.041820
0.517466 0.339256 0.024895
0.725600 0.338613 0.007256
0.766648 0.357769 0.007666
0.065718 0.353232 0.065718
0.070174 0.377184 0.070174
0.074599 0.400967 0.074599
0.078994 0.424595 0.078994
0.207682 0.433234 0.069911
0.436497 0.429778 0.049965
0.686726 0.423634 0.027675
0.903037 0.421417 0.009030
0.080588 0.433161 0.080588
0.084947 0.456593 0.084947
0.089282 0.479892 0.089282
0.093594 0.503066 0.093594
0.097883 0.526122 0.097883
0.292574 0.526329 0.081546
0.569201 0.516644 0.056322
0.866802 0.504352 0.028806
0.095158 0.511473 0.095158
0.099440 0.534487 0.099440
0.103701 0.557392 0.103701
0.107943 0.580193 0.107943
0.112166 0.602895 0.112166
0.116372 0.625502 0.116372
0.390250 0.615817 0.091379
0.713784 0.600114 0.060994
0.109483 0.588469 0.109483
0.113700 0.611136 0.113700
0.117899 0.633710 0.117899
0.122083 0.656194 0.122083
0.126250 0.678594 0.126250
0.130402 0.700911 0.130402
0.151259 0.721153 0.132730
0.500539 0.702104 0.099505
0.000864 0.004645 0.000864
0.024582 0.035815 0.005156
0.075142 0.060172 0.005815
0.150941 0.080048 0.003447
0.215100 0.100380 0.002151
0.261703 0.122128 0.002617
0.307396 0.143451 0.003074
0.352344 0.164427 0.003523
0.019721 0.105999 0.019721
0.034000 0.132017 0.023767
0.114590 0.149499 0.020514
0.219133 0.163627 0.014569
0.347093 0.174550 0.006007
0.412657 0.192573 0.004127
0.456248 0.212916 0.004562
0.499381 0.233045 0.004994
0.036287 0.195042 0.036287
0.041031 0.220544 0.041031
0.079803 0.241651 0.042027
0.213024 0.251190 0.032744
0.368952 0.257760 0.020951
0.547280 0.261424 0.006688
0.599787 0.279901 0.005998
0.641684 0.299452 0.006417
0.052021 0.279613 0.052021
0.056590 0.304169 0.056590
0.061117 0.328506 0.061117
0.138989 0.343882 0.057668
0.322576 0.346449 0.042741
0.528097 0.346226 0.025406
0.739568 0.345132 0.007396
0.780532 0.364248 0.007805
0.067235 0.361386 0.067235
0.071680 0.385279 0.071680
0.076095 0.409008 0.076095
0.080481 0.432586 0.080481
0.211364 0.440914 0.071150
0.443811 0.436979 0.050802
0.697635 0.430363 0.028114
0.916673 0.427781 0.009167
0.082071 0.441134 0.082071
0.086422 0.464520 0.086422
0.090749 0.487775 0.090749
0.095053 0.510908 0.095053
0.099335 0.533926 0.099335
0.296713 0.533775 0.082700
0.576897 0.523630 0.057083
0.878026 0.510882 0.029179
0.096614 0.519301 0.096614
0.100889 0.542278 0.100889
0.105144 0.565147 0.105144
0.109379 0.587914 0.109379
0.113597 0.610583 0.113597
0.117797 0.633158 0.117797
0.394843 0.623065 0.092454
0.721873 0.606915 0.061685
0.110917 0.596178 0.110917
0.115128 0.618812 0.115128
0.119322 0.641355 0.119322
0.123500 0.663810 0.123500
0.127662 0.686182 0.127662
0.131809 0.708472 0.131809
0.152835 0.728668 0.134113
0.505583 0.709178 0.100507
0.003117 0.016756 0.003117
0.031272 0.045562 0.006559
0.085957 0.068833 0.006652
0.165709 0.087880 0.003785
0.231042 0.107819 0.002310
0.277313 0.129413 0.002773
0.322738 0.150611 0.003227
0.367460 0.171481 0.003675
0.021449 0.115287 0.021449
0.036315 0.141007 0.025386
0.120972 0.157825 0.021656
0.229455 0.171335 0.015255
0.361260 0.181674 0.006252
0.427515 0.199507 0.004275
0.470945 0.219774 0.004709
0.513934 0.239836 0.005139
0.037906 0.203742 0.037906
0.042629 0.229128 0.042629
0.082558 0.249994 0.043478
0.219633 0.258983 0.033760
0.379343 0.265020 0.021541
0.561393 0.268165 0.006861
0.614051 0.286557 0.006141
0.655842 0.306060 0.006558
0.053577 0.287978 0.053577
0.058132 0.312457 0.058132
0.062646 0.336725 0.062646
0.142203 0.351835 0.059001
0.329511 0.353898 0.043660
0.538704 0.353180 0.025917
0.753507 0.351637 0.007535
0.794389 0.370715 0.007944
0.068748 0.369519 0.068748
0.073182 0.393355 0.073182
0.077587 0.417032 0.077587
0.081965 0.440560 0.081965
0.215038 0.448579 0.072387
0.451111 0.444167 0.051637
0.708524 0.437081 0.028553
0.930286 0.434134 0.009303
0.083552 0.449091 0.083552
0.087894 0.472431 0.087894
0.092213 0.495645 0.092213
0.096509 0.518738 0.096509
0.100785 0.541717 0.100785
0.300846 0.541209 0.083852
0.584582 0.530605 0.057844
0.889233 0.517404 0.029552
0.098068 0.527117 0.098068
0.102336 0.550056 0.102336
0.106584 0.572890 0.106584
0.110814 0.595623 0.110814
0.115025 0.618260 0.115025
0.119220 0.640805 0.119220
0.399430 0.630303 0.093528
0.729952 0.613708 0.062376
0.112349 0.603875 0.112349
0.116554 0.626478 0.116554
0.120742 0.648991 0.120742
0.124915 0.671417 0.124915
0.129072 0.693760 0.129072
0.133214 0.716024 0.133214
0.154410 0.736173 0.135495
0.510621 0.716245 0.101509
0.005184 0.027865 0.005184
0.037806 0.055082 0.007929
0.096622 0.077373 0.007478
0.180332 0.095635 0.004119
0.246862 0.115202 0.002469
0.292826 0.136652 0.002928
0.337998 0.157733 0.003380
0.382508 0.178504 0.003825
0.023161 0.124493 0.023161
0.038614 0.149934 0.026993
0.127316 0.166102 0.022792
0.239727 0.179005 0.015938
0.375365 0.188768 0.006496
0.442317 0.206415 0.004423
0.485591 0.226609 0.004856
0.528441 0.246606 0.005284
0.039516 0.212401 0.039516
0.044219 0.237677 0.044219
0.085304 0.258307 0.044924
0.226219 0.266749 0.034772
0.389702 0.272257 0.022130
0.575467 0.274888 0.007033
0.628278 0.293196 0.006283
0.669966 0.312651 0.006700
0.055129 0.296316 0.055129
0.059669 0.320721 0.059669
0.064171 0.344921 0.064171
0.145409 0.359767 0.060332
0.336430 0.361329 0.044577
0.549289 0.360119 0.026426
0.767418 0.358128 0.007674
0.808219 0.377169 0.008082
0.070257 0.377633 0.070257
0.074682 0.401413 0.074682
0.079077 0.425038 0.079077
0.083445 0.448518 0.083445
0.218706 0.456230 0.073622
0.458399 0.451342 0.052472
0.719396 0.443787 0.028991
0.943878 0.440476 0.009439
0.085029 0.457032 0.085029
0.089363 0.480329 0.089363
0.093675 0.503500 0.093675
0.097964 0.526554 0.097964
0.102232 0.549496 0.102232
0.304972 0.548632 0.085002
0.592256 0.537570 0.058603
0.900425 0.523916 0.029924
0.099520 0.534919 0.099520
0.103781 0.557822 0.103781
0.108023 0.580621 0.108023
0.112246 0.603321 0.112246
0.116451 0.625926 0.116451
0.120640 0.648441 0.120640
0.404011 0.637532 0.094601
0.738022 0.620492 0.063065
0.113779 0.611561 0.113779
0.117978 0.634133 0.117978
0.122161 0.656616 0.122161
0.126328 0.679014 0.126328
0.130480 0.701330 0.130480
0.134617 0.723567 0.134617
0.155982 0.743670 0.136875
0.515653 0.723304 0.102509
0.007160 0.038487 0.007160
0.044216 0.064421 0.009274
0.107158 0.085810 0.008293
0.194824 0.103321 0.004450
0.262570 0.122533 0.002626
0.308248 0.143849 0.003082
0.353183 0.164819 0.003532
0.397490 0.185495 0.003975
0.024860 0.133623 0.024860
0.040898 0.158803 0.028590
0.133626 0.174334 0.023921
0.249950 0.186638 0.016617
0.389412 0.195832 0.006739
0.457064 0.213296 0.004571
0.500189 0.233421 0.005002
0.542904 0.253355 0.005429
0.041120 0.221020 0.041120
0.045803 0.246192 0.045803
0.088039 0.266590 0.046364
0.232784 0.274491 0.035781
0.400031 0.279473 0.022716
0.589502 0.281593 0.007204
0.642469 0.299819 0.006425
0.684058 0.319227 0.006841
0.056675 0.304628 0.056675
0.061202 0.328962 0.061202
0.065692 0.353096 0.065692
0.148608 0.367681 0.061659
0.343334 0.368743 0.045491
0.559851 0.367044 0.026934
0.781300 0.364607 0.007813
0.822022 0.383610 0.008220
0.071763 0.385727 0.071763
0.076177 0.409453 0.076177
0.080563 0.433028 0.080563
0.084923 0.456461 0.084923
0.222367 0.463867 0.074854
0.465673 0.458505 0.053304
0.730249 0.450483 0.029429
0.957448 0.446809 0.009574
0.086504 0.464958 0.086504
0.090830 0.488212 0.090830
0.095134 0.511343 0.095134
0.099415 0.534358 0.099415
0.103677 0.557263 0.103677
0.309092 0.556044 0.086150
0.599918 0.544525 0.059361
0.911602 0.530419 0.030295
0.100969 0.542709 0.100969
0.105223 0.565576 0.105223
0.109459 0.588341 0.109459
0.113676 0.611008 0.113676
0.117876 0.633582 0.117876
0.122059 0.656068 0.122059
0.408587 0.644753 0.095673
0.746081 0.627268 0.063754
0.115207 0.619237 0.115207
0.119401 0.641779 0.119401
0.123578 0.664232 0.123578
0.127740 0.686602 0.127740
0.131887 0.708891 0.131887
0.136019 0.731102 0.136019
0.157553 0.751159 0.138253
0.520680 0.730355 0.103508
0.009077 0.048789 0.009077
0.050523 0.073611 0.010597
0.117579 0.094155 0.009100
0.209198 0.110943 0.004778
0.278175 0.129815 0.002782
0.323585 0.151006 0.003236
0.368295 0.171871 0.003683
0.412409 0.192458 0.004124
0.026546 0.142685 0.026546
0.043168 0.167617 0.030176
0.139902 0.182522 0.025045
0.260126 0.194237 0.017294
0.403403 0.202868 0.006981
0.471758 0.220154 0.004718
0.514739 0.240211 0.005147
0.557324 0.260084 0.005573
0.042717 0.229603 0.042717
0.047381 0.254674 0.047381
0.090765 0.274844 0.047800
0.239329 0.282208 0.036787
0.410331 0.286669 0.023301
0.603501 0.288279 0.007375
0.656625 0.306425 0.006566
0.698117 0.325788 0.006981
0.058217 0.312916 0.058217
0.062731 0.337179 0.062731
0.067209 0.361250 0.067209
0.151798 0.375575 0.062983
0.350221 0.376140 0.046404
0.570390 0.373953 0.027441
0.795155 0.371073 0.007952
0.835800 0.390040 0.008358
0.073266 0.393802 0.073266
0.077670 0.417476 0.077670
0.082047 0.441001 0.082047
0.086398 0.464388 0.086398
0.226021 0.471490 0.076084
0.472935 0.465655 0.054136
0.741084 0.457167 0.029865
0.970996 0.453131 0.009710
0.087976 0.472869 0.087976
0.092294 0.496080 0.092294
0.096590 0.519171 0.096590
0.100865 0.542149 0.100865
0.105120 0.565018 0.105120
0.313206 0.563445 0.087297
0.607570 0.551470 0.060118
0.922763 0.536913 0.030666
0.102416 0.550487 0.102416
0.106664 0.573318 0.106664
0.110893 0.596050 0.110893
0.115104 0.618685 0.115104
0.119298 0.641228 0.119298
0.123476 0.663684 0.123476
0.413157 0.651964 0.096743
0.754131 0.634036 0.064442
0.116633 0.626902 0.116633
0.120821 0.649414 0.120821
0.124993 0.671838 0.124993
0.129150 0.694180 0.129150
0.133292 0.716442 0.133292
0.137419 0.738628 0.137419
0.159122 0.758640 0.139630
0.525702 0.737399 0.104507
