grade/tech-noir.cube
TITLE "Garden of Dreams tech-noir"
LUT_3D_SIZE 32
DOMAIN_MIN 0 0 0
DOMAIN_MAX 1 1 1
0.000000 0.000000 0.000000
0.000000 0.000000 0.000000
0.000000 0.000000 0.000000
0.000000 0.000000 0.000000
0.002533 0.003691 0.000531
0.009971 0.012150 0.001612
0.018881 0.019686 0.002382
0.029377 0.026664 0.002907
0.041467 0.033206 0.003209
0.055144 0.039375 0.003303
0.070395 0.045211 0.003197
0.087206 0.050741 0.002898
0.105565 0.055984 0.002411
0.125460 0.060955 0.001740
0.141968 0.066252 0.001420
0.154250 0.071983 0.001542
0.166424 0.077665 0.001664
0.178500 0.083300 0.001785
0.190486 0.088893 0.001905
0.202388 0.094448 0.002024
0.214213 0.099966 0.002142
0.225966 0.105451 0.002260
0.237651 0.110904 0.002377
0.249273 0.116327 0.002493
0.260835 0.121723 0.002608
0.272340 0.127092 0.002723
0.283792 0.132436 0.002838
0.295192 0.137756 0.002952
0.306544 0.143054 0.003065
0.317849 0.148329 0.003178
0.329109 0.153584 0.003291
0.340327 0.158819 0.003403
0.000000 0.000000 0.000000
0.001500 0.007362 0.001359
0.005157 0.015912 0.002775
0.010617 0.023704 0.003888
0.017818 0.030976 0.004749
0.026715 0.037827 0.005382
0.037275 0.044312 0.005802
0.049469 0.050467 0.006017
0.063272 0.056317 0.006036
0.078664 0.061880 0.005863
0.095627 0.067172 0.005504
0.114146 0.072202 0.004960
0.134205 0.076981 0.004237
0.155792 0.081517 0.003336
0.178895 0.085816 0.002259
0.194828 0.090920 0.001948
0.206702 0.096461 0.002067
0.218500 0.101967 0.002185
0.230228 0.107440 0.002302
0.241890 0.112882 0.002419
0.253489 0.118295 0.002535
0.265030 0.123681 0.002650
0.276515 0.129041 0.002765
0.287948 0.134376 0.002879
0.299330 0.139687 0.002993
0.310665 0.144977 0.003107
0.321953 0.150245 0.003220
0.333198 0.155492 0.003332
0.344401 0.160720 0.003444
0.355563 0.165930 0.003556
0.366687 0.171121 0.003667
0.377773 0.176294 0.003778
0.005089 0.027354 0.005089
0.006553 0.035224 0.006553
0.009469 0.042723 0.007821
0.016960 0.049523 0.008562
0.026136 0.055995 0.009095
0.036964 0.062163 0.009429
0.049418 0.068045 0.009567
0.063476 0.073655 0.009516
0.079118 0.079004 0.009279
0.096326 0.084101 0.008859
0.115086 0.088953 0.008260
0.135384 0.093568 0.007483
0.157206 0.097951 0.006531
0.180542 0.102107 0.005407
0.205380 0.106040 0.004110
0.231710 0.109755 0.002645
0.246120 0.114856 0.002461
0.257697 0.120259 0.002577
0.269218 0.125635 0.002692
0.280684 0.130986 0.002807
0.292098 0.136312 0.002921
0.303462 0.141616 0.003035
0.314780 0.146897 0.003148
0.326052 0.152158 0.003261
0.337281 0.157398 0.003373
0.348469 0.162619 0.003485
0.359618 0.167822 0.003596
0.370727 0.173006 0.003707
0.381800 0.178174 0.003818
0.392838 0.183324 0.003928
0.403841 0.188459 0.004038
0.414811 0.193578 0.004148
0.009886 0.053136 0.009886
0.011256 0.060499 0.011256
0.012607 0.067764 0.012607
0.017842 0.074478 0.013521
0.029018 0.080405 0.013776
0.041804 0.086070 0.013843
0.056182 0.091483 0.013726
0.072133 0.096650 0.013426
0.089641 0.101579 0.012947
0.108694 0.106276 0.012292
0.129276 0.110744 0.011461
0.151378 0.114990 0.010458
0.174988 0.119016 0.009284
0.200095 0.122826 0.007941
0.226690 0.126423 0.006429
0.254765 0.129811 0.004750
0.284311 0.132991 0.002906
0.296241 0.138246 0.002962
0.307588 0.143541 0.003076
0.318889 0.148815 0.003189
0.330145 0.154068 0.003301
0.341359 0.159301 0.003414
0.352533 0.164515 0.003525
0.363667 0.169711 0.003637
0.374763 0.174889 0.003748
0.385823 0.180051 0.003858
0.396848 0.185196 0.003968
0.407838 0.190325 0.004078
0.418797 0.195438 0.004188
0.429723 0.200537 0.004297
0.440618 0.205622 0.004406
0.451484 0.210692 0.004515
0.014426 0.077538 0.014426
0.015742 0.084616 0.015742
0.017047 0.091629 0.017047
0.018341 0.098582 0.018341
0.026941 0.104608 0.018833
0.041676 0.109850 0.018650
0.057973 0.114859 0.018290
0.075816 0.119639 0.017753
0.095194 0.124195 0.017041
0.116095 0.128530 0.016158
0.138507 0.132649 0.015103
0.162420 0.136555 0.013879
0.187825 0.140249 0.012487
0.214712 0.143736 0.010929
0.243074 0.147018 0.009204
0.272903 0.150097 0.007316
0.304190 0.152974 0.005264
0.334233 0.155975 0.003342
0.345432 0.161201 0.003454
0.356591 0.166409 0.003566
0.367711 0.171598 0.003677
0.378794 0.176770 0.003788
0.389841 0.181926 0.003898
0.400853 0.187065 0.004009
0.411832 0.192188 0.004118
0.422778 0.197296 0.004228
0.433693 0.202390 0.004337
0.444577 0.207469 0.004446
0.455432 0.212535 0.004554
0.466259 0.217587 0.004663
0.477057 0.222627 0.004771
0.487829 0.227653 0.004878
0.018809 0.101100 0.018809
0.020089 0.107981 0.020089
0.021361 0.114813 0.021361
0.022623 0.121600 0.022623
0.023878 0.128346 0.023878
0.036835 0.133654 0.023859
0.055038 0.138298 0.023264
0.074765 0.142725 0.022498
0.096006 0.146938 0.021560
0.118751 0.150939 0.020454
0.142990 0.154731 0.019180
0.168714 0.158318 0.017739
0.195914 0.161700 0.016133
0.224584 0.164881 0.014363
0.254715 0.167862 0.012429
0.286300 0.170646 0.010334
0.319332 0.173233 0.008077
0.353806 0.175626 0.005659
0.382819 0.178649 0.003828
0.393854 0.183798 0.003939
0.404854 0.188932 0.004049
0.415821 0.194050 0.004158
0.426755 0.199152 0.004268
0.437659 0.204241 0.004377
0.448533 0.209315 0.004485
0.459377 0.214376 0.004594
0.470193 0.219424 0.004702
0.480982 0.224458 0.004810
0.491743 0.229480 0.004917
0.502479 0.234490 0.005025
0.513189 0.239488 0.005132
0.523874 0.244475 0.005239
0.023081 0.124061 0.023081
0.024333 0.130792 0.024333
0.025579 0.137485 0.025579
0.026817 0.144141 0.026817
0.028049 0.150764 0.028049
0.029275 0.157355 0.029275
0.047550 0.161878 0.028650
0.069149 0.165975 0.027660
0.092243 0.169866 0.026501
0.116824 0.173551 0.025177
0.142884 0.177034 0.023687
0.170414 0.180317 0.022033
0.199407 0.183401 0.020216
0.229856 0.186289 0.018237
0.261754 0.188981 0.016097
0.295095 0.191480 0.013796
0.329873 0.193787 0.011336
0.366082 0.195903 0.008716
0.403715 0.197830 0.005939
0.430729 0.201007 0.004307
0.441621 0.206090 0.004416
0.452484 0.211159 0.004525
0.463318 0.216215 0.004633
0.474124 0.221258 0.004741
0.484903 0.226288 0.004849
0.495655 0.231306 0.004957
0.506381 0.236311 0.005064
0.517082 0.241305 0.005171
0.527759 0.246287 0.005278
0.538411 0.251259 0.005384
0.549040 0.256219 0.005490
0.559647 0.261168 0.005596
0.027266 0.146556 0.027266
0.028496 0.153167 0.028496
0.029720 0.159746 0.029720
0.030939 0.166296 0.030939
0.032152 0.172816 0.032152
0.033360 0.179310 0.033360
0.035637 0.185649 0.034447
0.059094 0.189434 0.033237
0.084031 0.193017 0.031862
0.110439 0.196402 0.030323
0.138312 0.199589 0.028621
0.167642 0.202580 0.026757
0.198422 0.205377 0.024732
0.230646 0.207982 0.022546
0.264309 0.210395 0.020201
0.299403 0.212618 0.017697
0.335924 0.214653 0.015035
0.373866 0.216500 0.012216
0.413224 0.218161 0.009240
0.453992 0.219636 0.006108
0.478051 0.223091 0.004781
0.488820 0.228116 0.004888
0.499563 0.233129 0.004996
0.510280 0.238131 0.005103
0.520972 0.243120 0.005210
0.531640 0.248098 0.005316
0.542283 0.253066 0.005423
0.552904 0.258022 0.005529
0.563502 0.262968 0.005635
0.574079 0.267903 0.005741
0.584633 0.272829 0.005846
0.595166 0.277744 0.005952
0.031381 0.168673 0.031381
0.032592 0.175183 0.032592
0.033799 0.181667 0.033799
0.035000 0.188125 0.035000
0.036197 0.194559 0.036197
0.037390 0.200969 0.037390
0.038578 0.207357 0.038578
0.044704 0.213133 0.039228
0.071472 0.216422 0.037639
0.099697 0.219517 0.035889
0.129374 0.222418 0.033978
0.160497 0.225128 0.031906
0.193058 0.227647 0.029675
0.227052 0.229976 0.027285
0.262474 0.232118 0.024737
0.299317 0.234073 0.022032
0.337578 0.235842 0.019170
0.377251 0.237426 0.016152
0.418330 0.238827 0.012979
0.460812 0.240045 0.009650
0.504692 0.241081 0.006168
0.524858 0.244934 0.005249
0.535517 0.249908 0.005355
0.546153 0.254871 0.005462
0.556765 0.259824 0.005568
0.567355 0.264766 0.005674
0.577924 0.269698 0.005779
0.588470 0.274619 0.005885
0.598996 0.279531 0.005990
0.609501 0.284434 0.006095
0.619986 0.289327 0.006200
0.630452 0.294211 0.006305
0.035436 0.190471 0.035436
0.036632 0.196896 0.036632
0.037823 0.203297 0.037823
0.039010 0.209677 0.039010
0.040193 0.216035 0.040193
0.041372 0.222372 0.041372
0.042547 0.228689 0.042547
0.043719 0.234987 0.043719
0.054649 0.240101 0.043830
0.084682 0.242915 0.041871
0.116155 0.245539 0.039753
0.149062 0.247975 0.037476
0.183397 0.250223 0.035041
0.219154 0.252285 0.032449
0.256330 0.254162 0.029700
0.294918 0.255854 0.026795
0.334915 0.257364 0.023735
0.376314 0.258691 0.020520
0.419112 0.259836 0.017150
0.463305 0.260801 0.013627
0.508888 0.261587 0.009951
0.555857 0.262193 0.006122
0.571205 0.266562 0.005712
0.581766 0.271491 0.005818
0.592305 0.276409 0.005923
0.602823 0.281317 0.006028
0.613321 0.286216 0.006133
0.623799 0.291106 0.006238
0.634257 0.295987 0.006343
0.644697 0.300858 0.006447
0.655117 0.305721 0.006551
0.665519 0.310576 0.006655
0.039441 0.211994 0.039441
0.040622 0.218344 0.040622
0.041800 0.224674 0.041800
0.042974 0.230984 0.042974
0.044144 0.237275 0.044144
0.045311 0.243548 0.045311
0.046475 0.249803 0.046475
0.047635 0.256040 0.047635
0.048793 0.262260 0.048793
0.065465 0.266612 0.048268
0.098725 0.268966 0.045945
0.133408 0.271134 0.043464
0.169509 0.273118 0.040827
0.207024 0.274918 0.038034
0.245948 0.276536 0.035086
0.286276 0.277971 0.031983
0.328003 0.279226 0.028726
0.371125 0.280300 0.025315
0.415638 0.281195 0.021751
0.461538 0.281912 0.018034
0.508821 0.282450 0.014165
0.557484 0.282812 0.010144
0.606647 0.283102 0.006066
0.617138 0.287998 0.006171
0.627609 0.292884 0.006276
0.638060 0.297761 0.006381
0.648492 0.302630 0.006485
0.658906 0.307490 0.006589
0.669302 0.312341 0.006693
0.679679 0.317184 0.006797
0.690040 0.322018 0.006900
0.700382 0.326845 0.007004
0.043400 0.233277 0.043400
0.044570 0.239561 0.044570
0.045735 0.245827 0.045735
0.046898 0.252075 0.046898
0.048057 0.258306 0.048057
0.049213 0.264521 0.049213
0.050366 0.270719 0.050366
0.051517 0.276902 0.051517
0.052664 0.283069 0.052664
0.053809 0.289221 0.053809
0.077145 0.292709 0.052549
0.113597 0.294616 0.049867
0.151458 0.296341 0.047030
0.190723 0.297885 0.044038
0.231389 0.299247 0.040892
0.273450 0.300431 0.037592
0.316903 0.301435 0.034139
0.361743 0.302261 0.030533
0.407967 0.302909 0.026776
0.455571 0.303381 0.022866
0.504551 0.303676 0.018805
0.554903 0.303797 0.014594
0.606624 0.303742 0.010231
0.652286 0.304400 0.006523
0.662693 0.309257 0.006627
0.673082 0.314105 0.006731
0.683453 0.318945 0.006835
0.693807 0.323777 0.006938
0.704144 0.328600 0.007041
0.714463 0.333416 0.007145
0.724767 0.338224 0.007248
0.735054 0.343025 0.007351
0.047320 0.254346 0.047320
0.048478 0.260571 0.048478
0.049633 0.266779 0.049633
0.050785 0.272972 0.050785
0.051935 0.279149 0.051935
0.053081 0.285310 0.053081
0.054225 0.291457 0.054225
0.055366 0.297590 0.055366
0.056504 0.303709 0.056504
0.057640 0.309814 0.057640
0.058773 0.315905 0.058773
0.089682 0.318428 0.056682
0.129295 0.319899 0.053646
0.170305 0.321190 0.050456
0.212706 0.322303 0.047114
0.256496 0.323238 0.043618
0.301669 0.323995 0.039971
0.348223 0.324576 0.036172
0.396154 0.324982 0.032221
0.445457 0.325212 0.028120
0.496130 0.325267 0.023868
0.548168 0.325149 0.019467
0.601570 0.324858 0.014916
0.656331 0.324394 0.010215
0.697572 0.325534 0.006976
0.707903 0.330355 0.007079
0.718216 0.335168 0.007182
0.728514 0.339973 0.007285
0.738795 0.344771 0.007388
0.749060 0.349561 0.007491
0.759310 0.354345 0.007593
0.769544 0.359121 0.007695
0.051204 0.275222 0.051204
0.052352 0.281394 0.052352
0.053498 0.287550 0.053498
0.054640 0.293692 0.054640
0.055780 0.299819 0.055780
0.056918 0.305933 0.056918
0.058053 0.312033 0.058053
0.059185 0.318120 0.059185
0.060315 0.324194 0.060315
0.061443 0.330255 0.061443
0.062568 0.336304 0.062568
0.063691 0.342341 0.063691
0.103071 0.343798 0.060672
0.145818 0.344841 0.057287
0.189949 0.345707 0.053749
0.235461 0.346397 0.050059
0.282350 0.346911 0.046218
0.330612 0.347251 0.042227
0.380245 0.347416 0.038085
0.431243 0.347408 0.033793
0.483605 0.347227 0.029351
0.537327 0.346873 0.024761
0.592405 0.346347 0.020021
0.648837 0.345650 0.015133
0.706620 0.344782 0.010097
0.742534 0.346516 0.007425
0.752793 0.351304 0.007528
0.763038 0.356084 0.007630
0.773266 0.360858 0.007733
0.783480 0.365624 0.007835
0.793679 0.370384 0.007937
0.803864 0.375136 0.008039
0.055056 0.295924 0.055056
0.056195 0.302047 0.056195
0.057331 0.308155 0.057331
0.058465 0.314250 0.058465
0.059597 0.320333 0.059597
0.060726 0.326402 0.060726
0.061853 0.332459 0.061853
0.062977 0.338503 0.062977
0.064100 0.344536 0.064100
0.065220 0.350557 0.065220
0.066338 0.356566 0.066338
0.067454 0.362564 0.067454
0.072828 0.368043 0.068107
0.117306 0.368841 0.064526
0.163161 0.369464 0.060794
0.210390 0.369913 0.056911
0.258989 0.370187 0.052878
0.308955 0.370288 0.048695
0.360284 0.370216 0.044363
0.412974 0.369972 0.039881
0.467021 0.369556 0.035250
0.522422 0.368969 0.030471
0.579174 0.368212 0.025544
0.637274 0.367284 0.020469
0.696719 0.366186 0.015247
0.757507 0.364920 0.009878
0.787195 0.367358 0.007872
0.797389 0.372115 0.007974
0.807568 0.376865 0.008076
0.817733 0.381609 0.008177
0.827884 0.386346 0.008279
0.838021 0.391076 0.008380
0.058877 0.316466 0.058877
0.060008 0.322544 0.060008
0.061136 0.328608 0.061136
0.062262 0.334661 0.062262
0.063386 0.340701 0.063386
0.064508 0.346729 0.064508
0.065627 0.352746 0.065627
0.066744 0.358751 0.066744
0.067860 0.364745 0.067860
0.068973 0.370728 0.068973
0.070084 0.376701 0.070084
0.071193 0.382663 0.071193
0.072300 0.388615 0.072300
0.084809 0.393195 0.072172
0.132382 0.393578 0.068247
0.181322 0.393788 0.064172
0.231626 0.393825 0.059948
0.283290 0.393690 0.055574
0.336312 0.393384 0.051052
0.390688 0.392906 0.046381
0.446416 0.392258 0.041563
0.503492 0.391440 0.036596
0.561914 0.390453 0.031482
0.621679 0.389297 0.026221
0.682784 0.387972 0.020813
0.745226 0.386479 0.015259
0.809003 0.384818 0.009559
0.831576 0.388069 0.008316
0.841708 0.392797 0.008417
0.851827 0.397519 0.008518
0.861932 0.402235 0.008619
0.872024 0.406945 0.008720
0.062672 0.336861 0.062672
0.063795 0.342897 0.063795
0.064916 0.348921 0.064916
0.066034 0.354933 0.066034
0.067151 0.360935 0.067151
0.068265 0.366925 0.068265
0.069377 0.372904 0.069377
0.070488 0.378873 0.070488
0.071596 0.384831 0.071596
0.072703 0.390779 0.072703
0.073808 0.396717 0.073808
0.074911 0.402645 0.074911
0.076012 0.408563 0.076012
0.077111 0.414472 0.077111
0.097647 0.418051 0.076105
0.148293 0.418025 0.071839
0.200297 0.417827 0.067425
0.253655 0.417459 0.062862
0.308365 0.416920 0.058151
0.364423 0.416212 0.053292
0.421828 0.415334 0.048285
0.480576 0.414288 0.043132
0.540664 0.413073 0.037832
0.602090 0.411690 0.032386
0.664850 0.410139 0.026793
0.728944 0.408421 0.021055
0.794367 0.406537 0.015171
0.861118 0.404486 0.009142
0.875695 0.408658 0.008757
0.885770 0.413359 0.008858
0.895832 0.418055 0.008958
0.905881 0.422744 0.009059
0.066441 0.357120 0.066441
0.067557 0.363117 0.067557
0.068670 0.369103 0.068670
0.069782 0.375078 0.069782
0.070892 0.381043 0.070892
0.072000 0.386997 0.072000
0.073105 0.392942 0.073105
0.074210 0.398876 0.074210
0.075312 0.404801 0.075312
0.076412 0.410716 0.076412
0.077511 0.416621 0.077511
0.078608 0.422517 0.078608
0.079703 0.428404 0.079703
0.080797 0.434282 0.080797
0.081889 0.440152 0.081889
0.111337 0.442626 0.079910
0.165036 0.442196 0.075306
0.220083 0.441597 0.070555
0.276476 0.440829 0.065655
0.334212 0.439891 0.060609
0.393290 0.438786 0.055416
0.453705 0.437512 0.050077
0.515456 0.436071 0.044592
0.578539 0.434464 0.038960
0.642953 0.432689 0.033184
0.708694 0.430749 0.027262
0.775761 0.428642 0.021195
0.844151 0.426371 0.014983
0.909536 0.424450 0.009095
0.919569 0.429132 0.009196
0.929589 0.433808 0.009296
0.939597 0.438479 0.009396
0.070186 0.377251 0.070186
0.071295 0.383212 0.071295
0.072402 0.389163 0.072402
0.073508 0.395103 0.073508
0.074611 0.401034 0.074611
0.075713 0.406955 0.075713
0.076812 0.412867 0.076812
0.077910 0.418769 0.077910
0.079007 0.424662 0.079007
0.080101 0.430545 0.080101
0.081194 0.436420 0.081194
0.082286 0.442286 0.082286
0.083376 0.448144 0.083376
0.084464 0.453993 0.084464
0.085550 0.459833 0.085550
0.086635 0.465666 0.086635
0.125873 0.466934 0.083590
0.182605 0.466106 0.078651
0.240677 0.465109 0.073564
0.300087 0.463945 0.068332
0.360833 0.462613 0.062953
0.422912 0.461115 0.057428
0.486321 0.459450 0.051758
0.551058 0.457619 0.045943
0.617121 0.455623 0.039982
0.684508 0.453461 0.033877
0.753215 0.451134 0.027628
0.823241 0.448643 0.021235
0.894583 0.445987 0.014697
0.953230 0.444841 0.009532
0.963211 0.449498 0.009632
0.973180 0.454151 0.009732
0.073910 0.397264 0.073910
0.075012 0.403191 0.075012
0.076113 0.409108 0.076113
0.077212 0.415016 0.077212
0.078310 0.420915 0.078310
0.079406 0.426805 0.079406
0.080500 0.432685 0.080500
0.081592 0.438557 0.081592
0.082683 0.444420 0.082683
0.083772 0.450274 0.083772
0.084860 0.456120 0.084860
0.085946 0.461958 0.085946
0.087030 0.467787 0.087030
0.088113 0.473608 0.088113
0.089195 0.479422 0.089195
0.090275 0.485227 0.090275
0.091354 0.491025 0.091354
0.141249 0.490986 0.087148
0.200996 0.489764 0.081875
0.262076 0.488374 0.076457
0.324486 0.486818 0.070893
0.388224 0.485097 0.065183
0.453289 0.483210 0.059329
0.519677 0.481157 0.053330
0.587386 0.478940 0.047187
0.656414 0.476558 0.040900
0.726759 0.474013 0.034468
0.798418 0.471303 0.027893
0.871389 0.468430 0.021175
0.945671 0.465394 0.014314
0.996703 0.465128 0.009967
1.000000 0.469763 0.010066
0.077612 0.417165 0.077612
0.078709 0.423060 0.078709
0.079804 0.428947 0.079804
0.080897 0.434824 0.080897
0.081989 0.440692 0.081989
0.083079 0.446552 0.083079
0.084168 0.452403 0.084168
0.085255 0.458246 0.085255
0.086341 0.464081 0.086341
0.087425 0.469907 0.087425
0.088507 0.475726 0.088507
0.089588 0.481536 0.089588
0.090668 0.487339 0.090668
0.091746 0.493134 0.091746
0.092823 0.498922 0.092823
0.093898 0.504702 0.093898
0.094972 0.510474 0.094972
0.096045 0.516240 0.096045
0.157461 0.514793 0.090586
0.220206 0.513180 0.084982
0.284277 0.511402 0.079234
0.349671 0.509458 0.073340
0.416387 0.507350 0.067303
0.484422 0.505078 0.061121
0.553774 0.502641 0.054795
0.624440 0.500041 0.048326
0.696419 0.497278 0.041713
0.769708 0.494352 0.034957
0.844306 0.491263 0.028059
0.920210 0.488011 0.021018
0.997418 0.484598 0.013834
1.000000 0.485317 0.010400
0.081295 0.436961 0.081295
0.082386 0.442827 0.082386
0.083476 0.448683 0.083476
0.084564 0.454531 0.084564
0.085650 0.460371 0.085650
0.086735 0.466203 0.086735
0.087819 0.472026 0.087819
0.088901 0.477842 0.088901
0.089981 0.483650 0.089981
0.091060 0.489450 0.091060
0.092138 0.495242 0.092138
0.093214 0.501027 0.093214
0.094289 0.506804 0.094289
0.095363 0.512574 0.095363
0.096435 0.518337 0.096435
0.097506 0.524093 0.097506
0.098575 0.529842 0.098575
0.099643 0.535583 0.099643
0.110097 0.540198 0.099695
0.174503 0.538363 0.093906
0.240230 0.536363 0.087974
0.307277 0.534200 0.081897
0.375640 0.531872 0.075677
0.445319 0.529381 0.069312
0.516310 0.526727 0.062805
0.588612 0.523910 0.056154
0.662222 0.520930 0.049361
0.737138 0.517788 0.042425
0.813360 0.514485 0.035346
0.890883 0.511019 0.028125
0.969707 0.507392 0.020763
1.000000 0.503605 0.013258
0.084960 0.456658 0.084960
0.086046 0.462495 0.086046
0.087130 0.468324 0.087130
0.088213 0.474145 0.088213
0.089294 0.479957 0.089294
0.090374 0.485762 0.090374
0.091453 0.491559 0.091453
0.092530 0.497349 0.092530
0.093606 0.503131 0.093606
0.094680 0.508906 0.094680
0.095753 0.514673 0.095753
0.096825 0.520433 0.096825
0.097895 0.526186 0.097895
0.098964 0.531933 0.098964
0.100032 0.537672 0.100032
0.101099 0.543405 0.101099
0.102164 0.549130 0.102164
0.103228 0.554850 0.103228
0.104291 0.560562 0.104291
0.124991 0.563923 0.103227
0.192371 0.561705 0.097111
0.261066 0.559322 0.090852
0.331074 0.556777 0.084449
0.402392 0.554068 0.077903
0.475019 0.551198 0.071214
0.548953 0.548165 0.064383
0.624191 0.544970 0.057409
0.700732 0.541613 0.050293
0.778574 0.538096 0.043035
0.857714 0.534417 0.035635
0.938151 0.530578 0.028094
1.000000 0.526579 0.020411
0.088607 0.476262 0.088607
0.089688 0.482071 0.089688
0.090767 0.487873 0.090767
0.091845 0.493668 0.091845
0.092922 0.499455 0.092922
0.093997 0.505234 0.093997
0.095071 0.511006 0.095071
0.096143 0.516771 0.096143
0.097215 0.522529 0.097215
0.098285 0.528279 0.098285
0.099353 0.534023 0.099353
0.100420 0.539760 0.100420
0.101486 0.545490 0.101486
0.102551 0.551213 0.102551
0.103615 0.556930 0.103615
0.104677 0.562640 0.104677
0.105738 0.568344 0.105738
0.106798 0.574042 0.106798
0.107857 0.579733 0.107857
0.108915 0.585418 0.108915
0.140721 0.587425 0.106644
0.211061 0.584825 0.100202
0.282709 0.582063 0.093618
0.355664 0.579139 0.086891
0.429924 0.576053 0.080021
0.505486 0.572805 0.073009
0.582350 0.569396 0.065855
0.660512 0.565827 0.058560
0.739971 0.562096 0.051123
0.820726 0.558206 0.043545
0.902773 0.554155 0.035826
0.986113 0.549945 0.027965
0.092237 0.495776 0.092237
0.093313 0.501560 0.093313
0.094388 0.507336 0.094388
0.095462 0.513106 0.095462
0.096534 0.518868 0.096534
0.097604 0.524623 0.097604
0.098674 0.530371 0.098674
0.099742 0.536112 0.099742
0.100809 0.541847 0.100809
0.101874 0.547574 0.101874
0.102939 0.553295 0.102939
0.104002 0.559010 0.104002
0.105064 0.564718 0.105064
0.106125 0.570419 0.106125
0.107184 0.576114 0.107184
0.108242 0.581803 0.108242
0.109300 0.587486 0.109300
0.110356 0.593163 0.110356
0.111411 0.598833 0.111411
0.112465 0.604498 0.112465
0.113518 0.610157 0.113518
0.157283 0.610710 0.109947
0.230569 0.607732 0.103181
0.305157 0.604593 0.096274
0.381046 0.601292 0.089224
0.458234 0.597831 0.082032
0.536719 0.594210 0.074699
0.616500 0.590428 0.067225
0.697574 0.586486 0.059609
0.779940 0.582384 0.051853
0.863596 0.578124 0.043956
0.948540 0.573703 0.035918
0.095852 0.515204 0.095852
0.096924 0.520964 0.096924
0.097994 0.526717 0.097994
0.099063 0.532462 0.099063
0.100130 0.538201 0.100130
0.101197 0.543933 0.101197
0.102262 0.549658 0.102262
0.103326 0.555377 0.103326
0.104389 0.561089 0.104389
0.105450 0.566794 0.105450
0.106510 0.572493 0.106510
0.107570 0.578186 0.107570
0.108628 0.583873 0.108628
0.109684 0.589554 0.109684
0.110740 0.595228 0.110740
0.111795 0.600896 0.111795
0.112848 0.606559 0.112848
0.113901 0.612216 0.113901
0.114952 0.617867 0.114952
0.116002 0.623512 0.116002
0.117051 0.629151 0.117051
0.118100 0.634785 0.118100
0.174672 0.633783 0.113138
0.250890 0.630430 0.106050
0.328405 0.626917 0.098820
0.407216 0.623243 0.091450
0.487320 0.619410 0.083937
0.568717 0.615417 0.076285
0.651403 0.611264 0.068491
0.735377 0.606953 0.060557
0.820638 0.602483 0.052483
0.907184 0.597854 0.044268
0.099452 0.534552 0.099452
0.100519 0.540288 0.100519
0.101585 0.546018 0.101585
0.102649 0.551741 0.102649
0.103713 0.557457 0.103713
0.104775 0.563166 0.104775
0.105836 0.568870 0.105836
0.106896 0.574567 0.106896
0.107955 0.580257 0.107955
0.109012 0.585942 0.109012
0.110069 0.591620 0.110069
0.111124 0.597292 0.111124
0.112178 0.602959 0.112178
0.113231 0.608619 0.113231
0.114283 0.614274 0.114283
0.115334 0.619922 0.115334
0.116384 0.625565 0.116384
0.117433 0.631203 0.117433
0.118481 0.636835 0.118481
0.119528 0.642461 0.119528
0.120573 0.648082 0.120573
0.121618 0.653697 0.121618
0.122662 0.659307 0.122662
0.192884 0.656652 0.116219
0.272022 0.652926 0.108810
0.352453 0.649041 0.101260
0.434173 0.644997 0.093569
0.517181 0.640794 0.085738
0.601477 0.636432 0.077767
0.687057 0.631911 0.069656
0.773921 0.627232 0.061405
0.862066 0.622395 0.053014
0.103037 0.553822 0.103037
0.104100 0.559536 0.104100
0.105162 0.565244 0.105162
0.106222 0.570945 0.106222
0.107282 0.576639 0.107282
0.108340 0.582328 0.108340
0.109397 0.588010 0.109397
0.110453 0.593686 0.110453
0.111508 0.599356 0.111508
0.112562 0.605020 0.112562
0.113615 0.610678 0.113615
0.114666 0.616331 0.114666
0.115717 0.621978 0.115717
0.116766 0.627618 0.116766
0.117815 0.633254 0.117815
0.118862 0.638884 0.118862
0.119908 0.644508 0.119908
0.120954 0.650127 0.120954
0.121998 0.655740 0.121998
0.123042 0.661348 0.123042
0.124084 0.666951 0.124084
